X:1
T:Santa Baby
T:Santa Baby
C:Phil Springer, Tony Springer
Z:All Rights Reserved
L:1/8
M:4/4
K:G
V:1 treble 
%%MIDI program 0
V:1
"G6" GG"Em"GB"Am" AB"D7"cA |"G" Bd-"G#dim" d2-"Am7" d3"D7" d |"G6" GG"Em"GB"Am" AB"D7"cA | %3
w: Mis- ter Clause, I feel as tho' I|know ya, _ _ so|you won't mind if I should get fa-|
w: |||
"G" B"Em" G3"Am" B"D7" A3 |:"G" z2 D>G"Em" E G2 A |"A7" ^A>BA>B"D7" =A>GED- |"G" D2 GE-"Em" E4 | %7
w: mi- ya, will ya?|San- ta ba- by, just|slip a sa- ble un- der the tree|_ for me. *|
w: |San- ta Ba- by, one|lit- tle thing i real- ly do need;|_ the deed *|
"A7" z ^A2 B"D7" =A>GED- |"G" D2 D>G"Em" E G2 B |"Am" d>dc>c"D7" B>DEG- |"G""Em" G8- | %11
w: Been an aw- ful good girl,|* San- ta Ba- by, so|hur- ry down the chim- ney to- night.|_|
w: to a plat- i- num mine,|* San- ta hon- ey, so|hur- ry down the chim- ney to- night.|_|
"Am7" G4"D7" z4 |"G" z2 D>G"Em" E G2 A |"A7" ^A>BA>B"D7" =A>GED- |"G" D2 GE-"Em" E4 | %15
w: |San- ta Ba- by, a|fif- ty four con- ver- ti- ble too,|_ light blue. _|
w: |San- ta cu- tie, and|fill my stock- ing with a du- plex|_ and cheques. _|
"A7" z ^A2 B"D7" =A>GED- |"G" D2 D>G"Em" E G2 B |"Am" d>dc>c"D7" B>DEG- |"G""Em" G8- | %19
w: I'll wait up for you dear,|_ San- ta Ba- by, so|hur- ry down the chim- ney to- night|_|
w: Sign you X on the line,|_ San- ta cu- tie, and|hur- ry down the chim- ney to- night.|_|
"Am7" G4"D7" z4 ||"B7" z B2 F"F#m7" B3 F |"B7" B2 c^c- c4 |"E7" B>BE>E"Bm7" B>BE>E | %23
w: |Think of all the|fun I've missed. _|Think of all the fel- las that I|
w: |Come and trim my|Christ- mas tree. _|With some dec- o- ra- tions bought at|
"E7" B2 ^GF- F4 |"A7" z A>AE"Em7" A3 E |"A7" A2 ^AB- B3 =A |"D7" d2 ^c2"Am7" =c2 E2 | %27
w: have- n't kissed. *|Next year I could be|just as good * if|you check off my|
w: Tif- fan- y. *|I real- ly do be-|live in you. * Let's|see if you be-|
 B2"Edim" _B2"D7" A4 ||"G" z2 D>G"Em" E G2 A |"A7" ^A>BA>B"D7" =A>GED- |"G" D2 GE-"Em" E4 | %31
w: Christ- mas list.|San- ta Ba- by, I|want a yacht and real- ly that's not|* a lot. *|
w: lieve in me.|San- ta Ba- by, for-|got to men- tion one lit- tle thing:|* a ring! *|
"A7" z ^A2 B"D7" =A>GED- |"G" D2 D>G"Em" E G2 B |"Am" d>dc>c"D7" B>DEG- |1"G""Em" G8- | %35
w: Been and an- gel all year,|* San- ta Ba- by, so|hur- ry down the chim- ney to- night||
w: I don't mean on the phone,|* San- ta Ba- by, so|hur- ry down the chim- ney to- night.||
"Am7" G4"D7" z4 :|2"G""Em" G8- |"Am7" G4"D7""G" z4 |] %38
w: |||
w: |||

